Numix-GalliumOS/16/actions/stock_mail-open-multiple.svg

<?xml version="1.0" encoding="UTF-8" standalone="no"?>
<svg
   xmlns:dc="http://purl.org/dc/elements/1.1/"
   xmlns:cc="http://creativecommons.org/ns#"
   xmlns:rdf="http://www.w3.org/1999/02/22-rdf-syntax-ns#"
   xmlns:svg="http://www.w3.org/2000/svg"
   xmlns="http://www.w3.org/2000/svg"
   xmlns:sodipodi="http://sodipodi.sourceforge.net/DTD/sodipodi-0.dtd"
   xmlns:inkscape="http://www.inkscape.org/namespaces/inkscape"
   width="16"
   viewBox="0 0 4.5155557 4.5155557"
   height="16"
   id="svg2"
   version="1.1"
   inkscape:version="0.91 r"
   sodipodi:docname="stock_mail-open-multiple.svg">
  <metadata
     id="metadata32">
    <rdf:RDF>
      <cc:Work
         rdf:about="">
        <dc:format>image/svg+xml</dc:format>
        <dc:type
           rdf:resource="http://purl.org/dc/dcmitype/StillImage" />
        <dc:title></dc:title>
      </cc:Work>
    </rdf:RDF>
  </metadata>
  <defs
     id="defs30" />
  <sodipodi:namedview
     pagecolor="#ffffff"
     bordercolor="#666666"
     borderopacity="1"
     objecttolerance="10"
     gridtolerance="10"
     guidetolerance="10"
     inkscape:pageopacity="0"
     inkscape:pageshadow="2"
     inkscape:window-width="1920"
     inkscape:window-height="1056"
     id="namedview28"
     showgrid="false"
     inkscape:zoom="29.5"
     inkscape:cx="-3.1369335"
     inkscape:cy="12.438724"
     inkscape:window-x="0"
     inkscape:window-y="24"
     inkscape:window-maximized="1"
     inkscape:current-layer="svg2" />
  <g
     transform="matrix(0.75000007,0,0,0.75000007,-1.3457406e-7,-0.42333432)"
     id="g4-5">
    <path
       style="fill:#268bd2"
       d="M 0.28222223,0.56447648 C 0,0.56447648 0,0.56444338 0,0.84666568 L 0,3.668888 c 0,0.2822222 -4.9194439e-8,0.2822222 0.28222223,0.2822222 l 3.95111117,0 c 0.2822223,0 0.2822223,0 0.2822223,-0.2822222 0,-0.9083989 0,-2.2974207 0,-2.82222232 0,-0.2822223 0,-0.2821895 -0.2822223,-0.2821895 z"
       id="path6-0"
       inkscape:connector-curvature="0" />
    <g
       style="fill-opacity:0.1"
       id="g8-5">
      <path
         style="fill:#ffffff"
         d="M 0.12347223,0.56640108 C 0.00440972,0.57961508 0,0.63687508 0,0.84829708 L 2.2577778,2.2577768 4.5155557,0.84829708 c 0,-0.281896 0,-0.281896 -0.2822223,-0.281896 l -3.95111117,0 c -0.0705556,0 -0.1190625,-0.0044 -0.15875,0 z"
         id="path10-9"
         inkscape:connector-curvature="0" />
      <path
         d="m 4.5155557,0.84666558 -2.2577779,1.41111122 2.2577779,1.4111111 0,-2.82222232 z"
         id="path12-0"
         inkscape:connector-curvature="0" />
    </g>
  </g>
  <g
     style="fill:#dc322f;fill-opacity:0"
     transform="matrix(0.14967002,-0.14967002,0.14967002,0.14967002,-0.71215518,0.10993827)"
     id="g14-7">
    <path
       d="M 0.62499842,14.032613 2.039212,15.446827 5.574746,11.911293 4.1605324,10.497079 Z"
       id="path16-4"
       inkscape:connector-curvature="0" />
    <path
       d="m 1.3321052,9.0828657 5.6568544,0 0,5.6568543 z"
       id="path18-2"
       inkscape:connector-curvature="0" />
  </g>
  <path
     inkscape:connector-curvature="0"
     style="fill:#268bd2"
     d="m 1.3797531,4.515556 2.8849388,0 c 0.2508642,0 0.2508642,0 0.2508642,-0.2419048 l 0,-2.0864285 -1.6933335,-1.0583334 -1.6933336,1.0583334 0,2.0864285 c 0,0.2419048 0,0.2419048 0.2508641,0.2419048 z"
     id="path4248" />
  <path
     inkscape:connector-curvature="0"
     style="fill-opacity:0.1"
     d="m 1.3797531,4.515556 2.8849388,0 c 0.2508642,0 0.2508642,0 0.2508642,-0.2419048 l 0,-2.0864285 -1.6933335,-1.0583334 -1.6933336,1.0583334 0,2.0864285 c 0,0.2419048 0,0.2419048 0.2508641,0.2419048 z"
     id="path4250" />
  <path
     inkscape:connector-curvature="0"
     style="fill:#ffffff"
     d="m 1.5522224,1.5522226 0,2.54 2.5400003,0 0,-2.54 z"
     id="path4252" />
  <g
     style="fill:#268bd2"
     id="g4254"
     transform="matrix(0.75,0,0,0.75,1.128889,1.1288893)">
    <path
       inkscape:connector-curvature="0"
       d="m 0.28222223,4.5155557 3.95111127,0 c 0.2822222,0 0.2822222,0 0.2822222,-0.2822222 l 0,-2.5400001 L 0,4.2333335 c 0,0.2822222 0,0.2822222 0.28222223,0.2822222 z"
       id="path4256" />
    <path
       inkscape:connector-curvature="0"
       d="m 4.2333335,4.5155557 -3.95111127,0 C 0,4.5155557 0,4.5155557 0,4.2333335 L 0,1.6933334 4.5155557,4.2333335 c 0,0.2822222 0,0.2822222 -0.2822222,0.2822222 z"
       id="path4258" />
  </g>
  <path
     inkscape:connector-curvature="0"
     style="fill:#ffffff;fill-opacity:0.1"
     d="m 4.2646919,4.515556 -2.8849388,0 c -0.2508641,0 -0.2508641,0 -0.2508641,-0.2376604 l 0,-1.8790063 3.3866671,1.8790063 c 0,0.2376604 0,0.2376604 -0.2508642,0.2376604 z"
     id="path4260" />
</svg>

<svg xmlns="http://www.w3.org/2000/svg" width="16" viewBox="0 0 4.5155557 4.5155557" height="16">
 <g transform="matrix(0.75000007,0,0,0.75000007,-1.3457406e-7,-0.42333432)">
  <path d="m 0.282 0.564 c -0.282 0 -0.282 0 -0.282 0.282 l 0 2.822 c 0 0.282 0 0.282 0.282 0.282 l 3.951 0 c 0.282 0 0.282 0 0.282 -0.282 0 -0.908 0 -2.297 0 -2.822 0 -0.282 0 -0.282 -0.282 -0.282 z" style="fill:#268bd2"/>
  <g style="fill-opacity:0.1">
   <path d="m 0.123 0.566 c -0.119 0.013 -0.123 0.07 -0.123 0.282 l 2.258 1.409 2.258 -1.409 c 0 -0.282 0 -0.282 -0.282 -0.282 l -3.951 0 c -0.071 0 -0.119 -0.004 -0.159 0 z" style="fill:#fff"/>
   <path d="m 4.516 0.847 -2.258 1.411 2.258 1.411 0 -2.822 z"/>
  </g>
 </g>
 <g transform="matrix(0.14967002,-0.14967002,0.14967002,0.14967002,-0.71215518,0.10993827)" style="fill:#dc322f;fill-opacity:0">
  <path d="m 0.625 14.03 1.414 1.414 3.536 -3.536 -1.414 -1.414"/>
  <path d="m 1.332 9.08 5.657 0 0 5.657 z"/>
 </g>
 <path d="m 1.38 4.516 2.885 0 c 0.251 0 0.251 0 0.251 -0.242 l 0 -2.086 -1.693 -1.058 -1.693 1.058 0 2.086 c 0 0.242 0 0.242 0.251 0.242 z" style="fill:#268bd2"/>
 <path d="m 1.38 4.516 2.885 0 c 0.251 0 0.251 0 0.251 -0.242 l 0 -2.086 -1.693 -1.058 -1.693 1.058 0 2.086 c 0 0.242 0 0.242 0.251 0.242 z" style="fill-opacity:0.1"/>
 <path d="m 1.552 1.552 0 2.54 2.54 0 0 -2.54 z" style="fill:#fff"/>
 <g transform="matrix(0.75,0,0,0.75,1.128889,1.1288893)" style="fill:#268bd2">
  <path d="m 0.282 4.516 3.951 0 c 0.282 0 0.282 0 0.282 -0.282 l 0 -2.54 l -4.516 2.54 c 0 0.282 0 0.282 0.282 0.282 z"/>
  <path d="m 4.233 4.516 -3.951 0 c -0.282 0 -0.282 0 -0.282 -0.282 l 0 -2.54 4.516 2.54 c 0 0.282 0 0.282 -0.282 0.282 z"/>
 </g>
 <path d="m 4.265 4.516 -2.885 0 c -0.251 0 -0.251 0 -0.251 -0.238 l 0 -1.879 3.387 1.879 c 0 0.238 0 0.238 -0.251 0.238 z" style="fill:#fff;fill-opacity:0.1"/>
</svg>
